X: 352
T: Birks of Abergeldy
R: reel, march
B: Robert Bremner "A Collection of Scots Reels or Country Dances" 1757 p.35 #2
S: http://imslp.org/wiki/A_Collection_of_Scots_Reels_or_Country_Dances_(Bremner,_Robert)
Z: 2013 John Chambers <jc:trillian.mit.edu>
M: 2/4
L: 1/8
K: F
% - - - - - - - - - - - - - - - - - - - - - - - - -
V: 1
|:\
F>GAc | f2(Ted) | f2(Ted) | (e/f/g) (f/g/a) |\
F>GAc | f>gag | fdcA | TG2 d2 :|
|:\
F>GAd | cF (A/B/c/)A/ | cF (A/B/c/)A/ | (d/c/B/A/ G)A |\
F>GAc | f>gag | fdcA | TG2 d2 :|
% - - - - - - - - - - - - - - - - - - - - - - - - -
V: 2 clef=bass middle=d
|:\
f2f2 | f2f2 | f2f2 | g2g2 |\
f2f2 | f2f2 | f2f2 | g2g2 :|
|:\
f2f2 | f2f2 | f2f2 | g2g2 |\
f2f2 | f2f2 | f2f2 | g2g2 :|
% - - - - - - - - - - - - - - - - - - - - - - - - -

%%sep 1 1 500
%%sep 1 1 500
